main-pages/gulp-scss-starter/dist/img/default/plans/plans-preview3.svg

<svg width="32" height="32" viewBox="0 0 32 32" fill="none" xmlns="http://www.w3.org/2000/svg">
<path d="M16 22.8182C19.7656 22.8182 22.8182 19.7656 22.8182 16C22.8182 12.2344 19.7656 9.18182 16 9.18182C12.2344 9.18182 9.18182 12.2344 9.18182 16C9.18182 19.7656 12.2344 22.8182 16 22.8182Z" fill="#F5AA01"/>
<path d="M16 1V3.72727M16 28.2727V31M5.39091 5.39091L7.32727 7.32727M24.6727 24.6727L26.6091 26.6091M1 16H3.72727M28.2727 16H31M5.39091 26.6091L7.32727 24.6727M24.6727 7.32727L26.6091 5.39091M22.8182 16C22.8182 19.7656 19.7656 22.8182 16 22.8182C12.2344 22.8182 9.18182 19.7656 9.18182 16C9.18182 12.2344 12.2344 9.18182 16 9.18182C19.7656 9.18182 22.8182 12.2344 22.8182 16Z" stroke="#616161" stroke-width="2" stroke-linecap="round" stroke-linejoin="round"/>
</svg>

<svg width="32" height="32" viewBox="0 0 32 32" fill="none" xmlns="http://www.w3.org/2000/svg"><path d="M16 22.818a6.818 6.818 0 100-13.636 6.818 6.818 0 000 13.636z" fill="#F5AA01"/><path d="M16 1v2.727m0 24.546V31M5.39 5.39l1.937 1.937m17.346 17.346l1.936 1.936M1 16h2.727m24.546 0H31M5.39 26.61l1.937-1.937M24.673 7.327l1.936-1.936M22.82 16a6.818 6.818 0 11-13.637 0 6.818 6.818 0 0113.636 0z" stroke="#616161" stroke-width="2" stroke-linecap="round" stroke-linejoin="round"/></svg>
